src/images/icon-html.svg

<svg width="120" height="120" viewBox="0 0 120 120" fill="none" xmlns="http://www.w3.org/2000/svg">
<path fill-rule="evenodd" clip-rule="evenodd" d="M16 14H104L96.3966 101.532L60 111L23.9287 101.532L16 14Z" fill="#D1D2D6"/>
<path fill-rule="evenodd" clip-rule="evenodd" d="M38.5533 32.145H86.7026L84.4377 59.1264L82.6949 86.5197L60.0575 92.4206L39.0771 86.4843L37.5703 72.2531L47.2943 71.2338L48.1086 78.9253L60.1631 82.336L73.3829 78.8899L74.3535 63.6347H53.2773V53.9059H75.0641L76.0741 41.8738H38.5533V32.145Z" fill="#F5F6F7"/>
</svg>

<svg xmlns="http://www.w3.org/2000/svg" fill="none" viewBox="0 0 120 120"><path fill="#D1D2D6" fill-rule="evenodd" d="M16 14h88l-7.6 87.5L60 111l-36-9.5L16 14z" clip-rule="evenodd"/><path fill="#F5F6F7" fill-rule="evenodd" d="M38.6 32.1h48.1l-2.3 27-1.7 27.4-22.6 6-21-6-1.5-14.2 9.7-1 .8 7.6 12 3.4L73.5 79l1-15.3H53.3V54H75l1-12H38.6V32z" clip-rule="evenodd"/></svg>
